svgs/dji_ronin.svg

<svg viewBox="0 0 192 192" xml:space="preserve" style="fill-rule:evenodd;clip-rule:evenodd;stroke-linejoin:round;stroke-miterlimit:2" xmlns="http://www.w3.org/2000/svg"><path d="M1210 276h20c1.84 0 3.57.841 4.71 2.283a6.019 6.019 0 0 1 1.13 5.112l-11 46A6.005 6.005 0 0 1 1219 334h-20c-1.84 0-3.57-.841-4.71-2.283a6.019 6.019 0 0 1-1.13-5.112l11-46A6.006 6.006 0 0 1 1210 276Zm4.73 12-8.13 34h7.67l8.13-34h-7.67Zm-23.9 35.43c-5.74 23.894-24.31 38.57-41.83 38.57h-19c-1.95 0-3.78-.949-4.9-2.544a5.972 5.972 0 0 1-.75-5.474l5-14A5.992 5.992 0 0 1 1135 336l4.99-.001c9.35-.189 16.75-6.674 18.19-12.449 0-.012 0-.025.01-.037l11-43A5.999 5.999 0 0 1 1175 276h20a6 6 0 0 1 5.82 7.455l-9.99 39.975Zm-11.65-2.885 8.14-32.545h-7.66l-9.84 38.475c-2.41 9.612-14.14 21.273-29.72 21.524l-.1.001h-.77l-.72 2H1149c12.97 0 25.93-11.702 30.16-29.397.01-.02.01-.039.02-.058ZM1116.43 301c-.43 1.76-1.17 4.69-1.75 7h11.38c.04-.131.07-.265.1-.389.01-.013.01-.025.01-.038l12-49A6.008 6.008 0 0 1 1144 254h21c1.84 0 3.58.847 4.72 2.298a5.991 5.991 0 0 1 1.11 5.133l-14 56.984c-1.48 6.199-4.5 9.997-8.04 12.354-3.48 2.316-7.61 3.231-11.79 3.231h-46.99c-4.65.009-8.78-1.642-11.37-5.159-2.18-2.962-3.57-7.737-1.79-15.227 0-.007 0-.015.01-.022l5.31-21.999c3.1-12.967 12.87-15.593 19.83-15.593h21c1.83 0 3.56.834 4.69 2.265a6.002 6.002 0 0 1 1.16 5.084l-3 13A6.008 6.008 0 0 1 1120 301h-3.57Zm-1.21-11.988.24-1.012H1102c-2.86 0-6.89 1.059-8.16 6.391l-.01.017-5.31 21.986c-.39 1.679-.57 3.067-.48 4.216.04.484-.01.888.25 1.099.43.36 1.07.292 1.7.291H1137c1.81 0 3.64-.219 5.14-1.22 1.44-.958 2.42-2.649 3.02-5.169.01-.014.01-.028.01-.042L1157.35 266h-8.64l-10.88 44.418c-1.09 4.548-3.01 6.673-4.91 7.911-1.92 1.251-4.19 1.676-6.92 1.671h-15c-3.74 0-5.97-.963-7.2-2.159-1.3-1.276-2.94-3.773-1.64-9.231.01-.022.01-.043.02-.065l3-11.992c.72-2.971 2.12-4.639 3.66-5.746 1.65-1.182 3.76-1.711 6.38-1.795Z" style="fill-rule:evenodd;clip-rule:evenodd;stroke-linejoin:round;stroke-miterlimit:2" transform="translate(-1060 -212)"/></svg>

<?xml version="1.0" encoding="UTF-8" standalone="no"?>
<svg
   width="100%"
   height="100%"
   viewBox="0 0 192 192"
   version="1.1"
   xml:space="preserve"
   style="fill-rule:evenodd;clip-rule:evenodd;stroke-linejoin:round;stroke-miterlimit:2;"
   id="svg11"
   sodipodi:docname="dji.svg"
   inkscape:version="1.2.2 (b0a8486541, 2022-12-01)"
   xmlns:inkscape="http://www.inkscape.org/namespaces/inkscape"
   xmlns:sodipodi="http://sodipodi.sourceforge.net/DTD/sodipodi-0.dtd"
   xmlns="http://www.w3.org/2000/svg"
   xmlns:svg="http://www.w3.org/2000/svg"><defs
   id="defs15" /><sodipodi:namedview
   id="namedview13"
   pagecolor="#ffffff"
   bordercolor="#000000"
   borderopacity="0.25"
   inkscape:showpageshadow="2"
   inkscape:pageopacity="0.0"
   inkscape:pagecheckerboard="0"
   inkscape:deskcolor="#d1d1d1"
   showgrid="false"
   inkscape:zoom="1.9435354"
   inkscape:cx="84.639571"
   inkscape:cy="103.93431"
   inkscape:window-width="1274"
   inkscape:window-height="631"
   inkscape:window-x="1282"
   inkscape:window-y="708"
   inkscape:window-maximized="0"
   inkscape:current-layer="svg11" />
    <path
   d="M1210,276L1230,276C1231.84,276 1233.57,276.841 1234.71,278.283C1235.85,279.725 1236.26,281.609 1235.84,283.395L1224.84,329.395C1224.19,332.096 1221.78,334 1219,334L1199,334C1197.16,334 1195.43,333.159 1194.29,331.717C1193.15,330.275 1192.74,328.391 1193.16,326.605L1204.16,280.605C1204.81,277.905 1207.22,276 1210,276ZM1214.73,288C1214.73,288 1206.6,322 1206.6,322C1206.6,322 1214.27,322 1214.27,322C1214.27,322 1222.4,288 1222.4,288L1214.73,288ZM1190.83,323.43C1185.09,347.324 1166.52,362 1149,362L1130,362C1128.05,362 1126.22,361.051 1125.1,359.456C1123.97,357.861 1123.69,355.819 1124.35,353.982L1129.35,339.982C1130.2,337.594 1132.46,336 1135,336C1135,336 1139.94,336 1139.99,335.999C1149.34,335.81 1156.74,329.325 1158.18,323.55C1158.18,323.538 1158.18,323.525 1158.19,323.513L1169.19,280.513C1169.87,277.858 1172.26,276 1175,276L1195,276C1196.85,276 1198.59,276.851 1199.73,278.308C1200.87,279.764 1201.27,281.663 1200.82,283.455L1190.83,323.43ZM1179.18,320.545C1179.18,320.545 1187.32,288 1187.32,288L1179.66,288C1179.66,288 1169.82,326.475 1169.82,326.475C1167.41,336.087 1155.68,347.748 1140.1,347.999C1140.06,348 1140.03,348 1140,348L1139.23,348L1138.51,350L1149,350C1161.97,350 1174.93,338.298 1179.16,320.603C1179.17,320.583 1179.17,320.564 1179.18,320.545ZM1116.43,301C1116,302.76 1115.26,305.69 1114.68,308L1126,308C1126,308 1126.04,308 1126.06,308C1126.1,307.869 1126.13,307.735 1126.16,307.611C1126.17,307.598 1126.17,307.586 1126.17,307.573L1138.17,258.573C1138.83,255.888 1141.24,254 1144,254L1165,254C1166.84,254 1168.58,254.847 1169.72,256.298C1170.86,257.748 1171.27,259.641 1170.83,261.431C1170.83,261.431 1156.83,318.415 1156.83,318.415C1155.35,324.614 1152.33,328.412 1148.79,330.769C1145.31,333.085 1141.18,334 1137,334C1137,334 1090,334 1090.01,334C1085.36,334.009 1081.23,332.358 1078.64,328.841C1076.46,325.879 1075.07,321.104 1076.85,313.614C1076.85,313.607 1076.85,313.599 1076.86,313.592C1076.86,313.592 1082.17,291.593 1082.17,291.593C1085.27,278.626 1095.04,276 1102,276L1123,276C1124.83,276 1126.56,276.834 1127.69,278.265C1128.83,279.696 1129.26,281.568 1128.85,283.349L1125.85,296.349C1125.22,299.072 1122.79,301 1120,301L1116.43,301ZM1115.22,289.012L1115.46,288L1102,288C1099.14,288 1095.11,289.059 1093.84,294.391L1093.83,294.408C1093.83,294.408 1088.52,316.394 1088.52,316.394C1088.13,318.073 1087.95,319.461 1088.04,320.61C1088.08,321.094 1088.03,321.498 1088.29,321.709C1088.72,322.069 1089.36,322.001 1089.99,322L1090,322L1137,322C1138.81,322 1140.64,321.781 1142.14,320.78C1143.58,319.822 1144.56,318.131 1145.16,315.611C1145.17,315.597 1145.17,315.583 1145.17,315.569L1157.35,266L1148.71,266L1137.83,310.418C1136.74,314.966 1134.82,317.091 1132.92,318.329C1131,319.58 1128.73,320.005 1126,320L1111,320C1107.26,320 1105.03,319.037 1103.8,317.841C1102.5,316.565 1100.86,314.068 1102.16,308.61C1102.17,308.588 1102.17,308.567 1102.18,308.545C1102.18,308.545 1105.18,296.553 1105.18,296.553C1105.9,293.582 1107.3,291.914 1108.84,290.807C1110.49,289.625 1112.6,289.096 1115.22,289.012Z"
   id="path3"
   style="fill-rule:evenodd;clip-rule:evenodd;stroke-linejoin:round;stroke-miterlimit:2"
   transform="translate(-1060,-212)"
   inkscape:label="dji_path" />
</svg>
